X: 2382
T: NED KENDALL'S HORNPIPE
%R: hornpipe, reel
B: James Kerr "Merry Melodies" v.2 p.42 #382
Z: 2016 John Chambers <jc:trillian.mit.edu>
N: The 2nd strain is an unusually early example of nested repeat symbols.
M: C
L: 1/8
K: F
(uAB) |\
cdcB AFAc | dcde fefd |\
[1,3 cAfd cAFA | GFGA G2 :|\
[2,4 cagf ecde | f2a2f2 :|
|: (AB) |:\
c2 (3(fef) d2 (3(fef) | c2 (3(fef) a2 (3(fef) |\
[1,3 gaba gfed | cfed cBAB :|\
[2,4 gagf ecde | f2a2f2 :|
